!!!COM: Bach, Johann Sebastian
!!!CDT: 1685/03/31-1750/07/28
!!!OTL: Sinfonia 8 in F major
!!!SCA: BWV 794
**kern	**kern	**kern
*staff3	*staff2	*staff1
*I"	*I"	*I"
*clefF4	*clefG2	*clefG2
*k[b-]	*k[b-]	*k[b-]
*F:	*F:	*F:
*M4/4	*M4/4	*M4/4
*met(c)	*met(c)	*met(c)
*MM92	*MM92	*MM92
=1	=1	=1
4FF	8r	1r
.	16ccLL	.
.	16aJJ	.
2F	8ddL	.
.	8ccJ	.
.	8b-ML	.
.	16aL	.
.	16gJJ	.
4E	16ccLL	.
.	16dd	.
.	16b-	.
.	16ccJJ	.
=2	=2	=2
8FL	16aLL	8r
.	16b-J	.
16AL	[8ccJ	16ffLL
16GJJ	.	16eeJJ
8FL	2cc]	8aaL
8EJ	.	8ggJ
8DL	.	8ffML
16GL	.	16eeL
16FJJ	.	16ddJJ
8GL	4bn	16ggLL
.	.	16aa
8GGJ	.	16ff
.	.	16ggJJ
=3	=3	=3
8CL	8ccL	16eeLL
.	.	16ff
16cL	8b-XJ	16dd
16AJJ	.	16eeJJ
8dL	16aLL	2ff
.	16b-	.
8cJ	16cc	.
.	16ddJJ	.
8B-ML	2g	.
16AL	.	.
16GJJ	.	.
16cLL	.	4ee
16d	.	.
16B-	.	.
16cJJ	.	.
!!LO:LB:g=original
=4	=4	=4
8AL	4f	8ffL
8GJ	.	16ccL
.	.	16aJJ
16FLL	8r	4dd
16E	.	.
16F	16aLL	.
16DJJ	16fJJ	.
8GL	4bn	8r
8GGJ	.	16ddLL
.	.	16bJJ
16GLL	8r	4ee
16F	.	.
16G	16bLL	.
16EJJ	16gJJ	.
=5	=5	=5
8AL	4cc	8r
8AAJ	.	16eeLL
.	.	16ccJJ
16ALL	8r	[4ff
16G	.	.
16A	16ccLL	.
16FJJ	16aJJ	.
8BnL	[4dd	16ffLL]
.	.	16ee
16GL	.	16ff
16EJJ	.	16ggJJ
8AL	16ddLL]	8.eeL
.	16bnJ	.
8GJ	[8ccJ	.
.	.	16eeJk
=6	=6	=6
8FL	4cc_	16aaLL
.	.	16ff
16EL	.	16gg
16DJJ	.	16aaJJ
16GLL	16ccLL]	[4dd
16A	16a	.
16F	16bn	.
16GJJ	16ddJJ	.
8EL	16gLL	8ddL]
.	16f	.
16AL	16g	16ccL
16GJJ	16eJJ	16bnJJ
8FL	8aL	[4cc
8EJ	8gJ	.
=7	=7	=7
8DL	8fL	4cc]
16GL	16eL	.
16FJJ	16dJJ	.
8GL	16gLL	4bn
.	16a	.
8GGJ	16f	.
.	16gJJ	.
8CL	8e	8ccL
8CCJ	8r	16ggL
.	.	16eeJJ
8r	4r	8aaL
16cLL	.	8ggJ
16AJJ	.	.
!!LO:LB:g=original
=8	=8	=8
8dL	1r	8ffL
8cJ	.	16eeL
.	.	16ddJJ
8BnL	.	16ggLL
.	.	16aa
16AL	.	16ff
16GJJ	.	16ggJJ
16cLL	.	16eeLL
16d	.	16dd
16B-X	.	16ee
16cJJ	.	16ccJJ
16ALL	.	8ffL
16G	.	.
16A	.	8eeJ
16FJJ	.	.
=9	=9	=9
8B-L	1r	8ddL
8AJ	.	16cc#XL
.	.	16bnJJ
8GL	.	16eeLL
.	.	16ff
16FL	.	16dd
16EJJ	.	16eeJJ
16ALL	.	8cc#L
16B-	.	.
16G	.	16aaL
16AJJ	.	16ffJJ
8DL	.	8bb-XL
16dL	.	8aaJ
16BnJJ	.	.
=10	=10	=10
8eL	2r	8ggL
8dJ	.	16ffL
.	.	16eeJJ
8c#XL	.	16aaLL
.	.	16bb-
16BnL	.	16gg
16AJJ	.	16aaJJ
16dLL	8r	8ff#XmL
16cn	.	.
16B-X	16ddLL	8ddJ
16AJJ	16b-JJ	.
16GLL	8ee-XL	[4gg
16A	.	.
16B-	8ddJ	.
16GJJ	.	.
=11	=11	=11
8AL	8ccL	4gg]
16dL	16b-L	.
16cJJ	16aJJ	.
8dL	16ddLL	4ff#X
.	16ee-X	.
8DJ	16cc	.
.	16ddJJ	.
8GL	16b-LL	[2gg
.	16a	.
16DL	16b-	.
16BB-JJ	16gJJ	.
8E-XL	16ccLL	.
.	16dd	.
8DJ	16b-	.
.	16ccJJ	.
!!LO:LB:g=original
=12	=12	=12
8CL	4.a	8ggL]
16BB-L	.	8ggJ
16AAJJ	.	.
16DLL	.	[4ffn
16E-X	.	.
16C	8a	.
16DJJ	.	.
8BB-L	4.g	8ffL]
16GL	.	8ee-XJ
16FJJ	.	.
8B-L	.	[4dd
8AJ	8f	.
=13	=13	=13
8GL	[2en	8ddL]
16GL	.	8dd
16FJJ	.	.
16ALL	.	8cc#X
16B-	.	.
16G	.	8eeJ
16AJJ	.	.
16FLL	8eL]	16aLL
16E	.	16g
16F	16dL	16a
16DJJ	16c#XJJ	16fJJ
8GL	[4d	8b-L
8FJ	.	8aJ
=14	=14	=14
8EL	4d]	8gL
16AL	.	16fL
16GJJ	.	16eJJ
8AL	4c#X	16aLL
.	.	16b-
8AAJ	.	16g
.	.	16aJJ
*	*clefF4	*
8BB-L	16r	[2f
.	16dLL	.
16AAL	16cn	.
16FFJJ	16AJJ	.
8GGL	16B-XLL	.
.	16c#X	.
16FFL	16d	.
16DDJJ	16AJJ	.
=15	=15	=15
16BB-LL	[2G	16fLL]
16AA	.	16f
16BB-	.	16e
16GGJJ	.	16gJJ
8AAL	.	8.c#XL
8AAJ	.	.
.	.	16dJk
4DD	8GL]	4d
.	16FL	.
.	16DJJ	.
8r	[4B-	8r
8D	.	16fLL
.	.	16dJJ
!!LO:LB:g=original
=16	=16	=16
16ELL	8B-]L	4.g
16D	.	.
16E	16B-L	.
16FJJ	16GJJ	.
16ELL	2c	.
16D	.	.
16E	.	16gLL
16CJJ	.	16eJJ
8FL	.	8aL
8FFJ	.	16ccL
.	.	16aJJ
*	*clefG2	*
8r	8r	[4ff
16FLL	16aLL	.
16DJJ	16fJJ	.
=17	=17	=17
16GLL	4b-	8ffL]
16F	.	.
16G	.	16ddL
16AJJ	.	16b-JJ
16GLL	8r	[4ee-X
16B-	.	.
16A	16ccLL	.
16cJJ	16aJJ	.
[2B-	16fLL	8ee-L]
.	16e-X	.
.	16f	16ddL
.	16dJJ	16b-JJ
.	8gL	8ee-L
.	8fJ	8ddJ
=18	=18	=18
2B-_	8e-XL	8ccL
.	16dL	16b-L
.	16cJJ	16aJJ
.	16fLL	16ddLL
.	16g	16ee-X
.	16e-	16cc
.	16fJJ	16ddJJ
16B-LL]	[2d	8b-L
16c	.	.
16B-	.	16ddL
16AJJ	.	16b-JJ
16GLL	.	8ggL
16A	.	.
16B-	.	8ffJ
16GJJ	.	.
=19	=19	=19
8cL	4d]	8ee-XL
8B-J	.	16ddL
.	.	16ccJJ
8AL	4c	16ffLL
.	.	16gg
16GL	.	16ee-
16FJJ	.	16ffJJ
16B-LL	8B-L	4dd
16c	.	.
16d	16fL	.
16cJJ	16dJJ	.
16B-LL	[4g	8r
16A	.	.
16B-	.	16ddLL
16GJJ	.	16b-JJ
!!LO:LB:g=original
=20	=20	=20
8cL	8gL]	4ee
8CJ	16gL	.
.	16eJJ	.
16cLL	4a	8r
16B-	.	.
16c	.	16eeLL
16AJJ	.	16ccJJ
8dL	8r	4ff
8DJ	16aLL	.
.	16fJJ	.
16dLL	[4b-	8r
16c	.	.
16d	.	16ffLL
16B-JJ	.	16ddJJ
=21	=21	=21
8eL	16b-LL]	[4gg
.	16a	.
16cL	16b-	.
16AJJ	16ccJJ	.
8dL)	8.aL	16ggLL]
.	.	16eeJ
8cJ	.	[8ffJ
.	16aJk	.
8B-L	16ddLL	4ff_
.	16b-	.
16AL	16cc	.
16GJJ	16ddJJ	.
16cLL	[4g	16ffLL]
16d	.	16dd
16B-	.	16ee
16cJJ	.	16ggJJ
=22	=22	=22
8AL	8gL]	16ccLL
.	.	16b-
16dL	16fL	16cc
16cJJ	16eJJ	16aJJ
16B-LL	2f	8ddL
16c	.	.
16A	.	8ccJ
16B-JJ	.	.
8GL	.	8b-L
16AL	.	16aL
16B-JJ	.	16gJJ
8cL	8eL	16ccLL
.	.	16dd
8EJ	[8gJ	16b-
.	.	16ccJJ
=23	=23	=23
8FL	8gL]	8.aL
16DL	[8f	.
16BB-JJ	.	16b-Jk
8CL	8f]	8.gL
8CCJ	8eJ	.
.	.	16fJk
2FF;	2f;	2f;
==	==	==
*-	*-	*-
!!!system-decoration: [(s1,s2,s3)]
!!!URL-pdf: https://vmirror.imslp.org/files/imglnks/usimg/5/55/IMSLP396136-PMLP03268-Bach,_Johann_Sebastian-Werke_Breitkopf_Band_3_02_BWV_787-801.pdf#page=11 Bach-Gesellschaft Ausgabe, Band 3 (pp.19-42) Leipzig: Breitkopf und Härtel, 1853. Plate B.W. III.
!!!URL-youtube: https://www.youtube.com/watch?v=Lao8x1bHWEg&t=842s Malinowski
!!!SMS: Bach-Gesellschaft Ausgabe, Band 3 (pp.19-42) Leipzig: Breitkopf und Härtel, 1853. Plate B.W. III.
!!!ONB: Open-score format
!!!ENC: Craig Stuart Sapp
!!!END: 2024/03/28
!!!EED: Craig Stuart Sapp
!!!EEV: 2024/03/28
!!!title: @{OTL} (@{SCA})
!!!voices: 3
!!!AGN: polyphony
!!!AST: baroque
!!!AMT: simple quadruple
!!!AIN: cemb; clavi
